svg/fluentui-system-icons/ic_fluent_channel_dismiss_16_filled.svg

<svg width="16" height="16" viewBox="0 0 16 16" fill="none" xmlns="http://www.w3.org/2000/svg">
<path d="M1.63 2.28919C1.74927 2.26352 1.87306 2.25 2 2.25C2.9665 2.25 3.75 3.0335 3.75 4C3.75 4.9665 2.9665 5.75 2 5.75C1.82626 5.75 1.65843 5.72468 1.5 5.67753V8C1.5 9.10457 2.39543 10 3.5 10H5.02242C5.27504 7.19675 7.63098 5 10.5 5V3C10.5 1.89543 9.60457 1 8.5 1H3.5C2.64577 1 1.91663 1.53554 1.63 2.28919ZM4 4.5C4 4.22386 4.22386 4 4.5 4H7.5C7.77614 4 8 4.22386 8 4.5C8 4.77614 7.77614 5 7.5 5H4.5C4.22386 5 4 4.77614 4 4.5ZM4.5 7C4.22386 7 4 6.77614 4 6.5C4 6.22386 4.22386 6 4.5 6H6C6.27614 6 6.5 6.22386 6.5 6.5C6.5 6.77614 6.27614 7 6 7H4.5ZM2.75 4C2.75 4.41421 2.41421 4.75 2 4.75C1.58579 4.75 1.25 4.41421 1.25 4C1.25 3.58579 1.58579 3.25 2 3.25C2.41421 3.25 2.75 3.58579 2.75 4ZM15 10.5C15 12.9853 12.9853 15 10.5 15C8.01472 15 6 12.9853 6 10.5C6 8.01472 8.01472 6 10.5 6C12.9853 6 15 8.01472 15 10.5ZM12.3536 9.35355C12.5488 9.15829 12.5488 8.84171 12.3536 8.64645C12.1583 8.45118 11.8417 8.45118 11.6464 8.64645L10.5 9.79289L9.35355 8.64645C9.15829 8.45118 8.84171 8.45118 8.64645 8.64645C8.45118 8.84171 8.45118 9.15829 8.64645 9.35355L9.79289 10.5L8.64645 11.6464C8.45118 11.8417 8.45118 12.1583 8.64645 12.3536C8.84171 12.5488 9.15829 12.5488 9.35355 12.3536L10.5 11.2071L11.6464 12.3536C11.8417 12.5488 12.1583 12.5488 12.3536 12.3536C12.5488 12.1583 12.5488 11.8417 12.3536 11.6464L11.2071 10.5L12.3536 9.35355Z" fill="#212121"/>
</svg>

<svg xmlns="http://www.w3.org/2000/svg" width="16" height="16"><path d="M1.63 2.29a1.75 1.75 0 1 1-.13 3.388V8a2 2 0 0 0 2 2h1.522A5.5 5.5 0 0 1 10.5 5V3a2 2 0 0 0-2-2h-5a2 2 0 0 0-1.87 1.29ZM4 4.5a.5.5 0 0 1 .5-.5h3a.5.5 0 0 1 0 1h-3a.5.5 0 0 1-.5-.5ZM4.5 7a.5.5 0 0 1 0-1H6a.5.5 0 0 1 0 1H4.5ZM2.75 4a.75.75 0 1 1-1.5 0 .75.75 0 0 1 1.5 0ZM15 10.5a4.5 4.5 0 1 1-9 0 4.5 4.5 0 0 1 9 0Zm-2.646-1.146a.5.5 0 0 0-.708-.708L10.5 9.793 9.354 8.646a.5.5 0 1 0-.708.708L9.793 10.5l-1.147 1.146a.5.5 0 0 0 .708.708l1.146-1.147 1.146 1.147a.5.5 0 0 0 .708-.708L11.207 10.5l1.147-1.146Z"/></svg>
